src/topics/icons/webpack.svg

<svg height="296" preserveAspectRatio="xMidYMid" viewBox="0 0 256 296" width="256" xmlns="http://www.w3.org/2000/svg" xmlns:xlink="http://www.w3.org/1999/xlink"><radialGradient id="a" cx="50%" cy="50%" r="50%"><stop offset="0" stop-color="#93b4e7"/><stop offset=".592733578" stop-color="#b9d1f8"/><stop offset="1" stop-color="#9cb6e0"/></radialGradient><path d="m128.032342.45551601-127.73443453 73.74758719v147.4951748l127.73443453 73.748042 127.734889-73.748042v-147.4951748z" fill="url(#a)"/><path d="m128.033708 75.2626335-63.3436012 36.5715585v73.143573l63.3436012 36.572014 63.344513-36.572014v-73.143573z" fill="#6f95db"/><g fill="#fff" fill-opacity=".1"><path d="m128 0-128 74.2491103 128 69.6939497 128-69.2384337z"/><path d="m128 0-128 67.8718861 128 73.7935939 127.544484-74.2491099z" transform="translate(0 153.508897)"/></g></svg>

<?xml version="1.0" encoding="UTF-8" standalone="no" ?>
<svg width="256px" height="296px" viewBox="0 0 256 296" version="1.1" xmlns="http://www.w3.org/2000/svg" xmlns:xlink="http://www.w3.org/1999/xlink" preserveAspectRatio="xMidYMid">
    <defs>
        <radialGradient cx="50%" cy="50%" fx="50%" fy="50%" r="50%" id="radialGradient-1">
            <stop stop-color="#93B4E7" offset="0%"></stop>
            <stop stop-color="#B9D1F8" offset="59.2733578%"></stop>
            <stop stop-color="#9CB6E0" offset="100%"></stop>
        </radialGradient>
    </defs>
    <g>
        <path d="M128.032342,0.455516014 L0.297907473,74.2031032 L0.297907473,221.698278 L128.032342,295.44632 L255.767231,221.698278 L255.767231,74.2031032 L128.032342,0.455516014 Z" fill="url(#radialGradient-1)"></path>
        <path d="M128.033708,75.2626335 L64.6901068,111.834192 L64.6901068,184.977765 L128.033708,221.549779 L191.378221,184.977765 L191.378221,111.834192 L128.033708,75.2626335 Z" fill="#6F95DB"></path>
        <g fill="#FFFFFF" fill-opacity="0.1">
            <path d="M128,0 L0,74.2491103 L128,143.94306 L256,74.7046263 L128,0 Z"></path>
        </g>
        <g transform="translate(0.000000, 153.508897)" fill="#FFFFFF" fill-opacity="0.1">
            <path d="M128,0 L0,67.8718861 L128,141.66548 L255.544484,67.4163701 L128,0 Z"></path>
        </g>
    </g>
</svg>
